X:2900
T:Charming Phyllis
R:Minuet
O:England
M:3/4
A:Lancashire
B:Winder
K:D
d4 e2 | fg a4 | g2 f2 e2 | fg a4 | \
g2 f2 e2 | fe de fg | a2 g2 f2 | e6 :|*
|:a4 b2 | gf e4 | g4 a2 | fe d4 |\
A2 d2 f2 | B2 e2 g2 | f3g ec | d6 :|**


